img/beanToStringJson.svg

<?xml version="1.0" standalone="no"?><!DOCTYPE svg PUBLIC "-//W3C//DTD SVG 1.1//EN" "http://www.w3.org/Graphics/SVG/1.1/DTD/svg11.dtd"><svg t="1618631170538" class="icon" viewBox="0 0 1024 1024" version="1.1" xmlns="http://www.w3.org/2000/svg" p-id="2193" data-darkreader-inline-fill="" xmlns:xlink="http://www.w3.org/1999/xlink" width="200" height="200"><defs><style type="text/css"></style></defs><path d="M213.333333 128h85.333334v85.333333H213.333333v213.333334a85.333333 85.333333 0 0 1-85.333333 85.333333 85.333333 85.333333 0 0 1 85.333333 85.333333v213.333334h85.333334v85.333333H213.333333c-45.653333-11.52-85.333333-38.4-85.333333-85.333333v-170.666667a85.333333 85.333333 0 0 0-85.333333-85.333333H0v-85.333334h42.666667a85.333333 85.333333 0 0 0 85.333333-85.333333V213.333333a85.333333 85.333333 0 0 1 85.333333-85.333333m597.333334 0a85.333333 85.333333 0 0 1 85.333333 85.333333v170.666667a85.333333 85.333333 0 0 0 85.333333 85.333333h42.666667v85.333334h-42.666667a85.333333 85.333333 0 0 0-85.333333 85.333333v170.666667a85.333333 85.333333 0 0 1-85.333333 85.333333h-85.333334v-85.333333h85.333334v-213.333334a85.333333 85.333333 0 0 1 85.333333-85.333333 85.333333 85.333333 0 0 1-85.333333-85.333333V213.333333h-85.333334V128h85.333334m-298.666667 512a42.666667 42.666667 0 0 1 42.666667 42.666667 42.666667 42.666667 0 0 1-42.666667 42.666666 42.666667 42.666667 0 0 1-42.666667-42.666666 42.666667 42.666667 0 0 1 42.666667-42.666667m-170.666667 0a42.666667 42.666667 0 0 1 42.666667 42.666667 42.666667 42.666667 0 0 1-42.666667 42.666666 42.666667 42.666667 0 0 1-42.666666-42.666666 42.666667 42.666667 0 0 1 42.666666-42.666667m341.333334 0a42.666667 42.666667 0 0 1 42.666666 42.666667 42.666667 42.666667 0 0 1-42.666666 42.666666 42.666667 42.666667 0 0 1-42.666667-42.666666 42.666667 42.666667 0 0 1 42.666667-42.666667z" fill="" p-id="2194"></path></svg>

<svg class="icon" viewBox="0 0 1024 1024" xmlns="http://www.w3.org/2000/svg" width="200" height="200"><defs><style/></defs><path d="M213.333 128h85.334v85.333h-85.334v213.334A85.333 85.333 0 01128 512a85.333 85.333 0 0185.333 85.333v213.334h85.334V896h-85.334C167.68 884.48 128 857.6 128 810.667V640a85.333 85.333 0 00-85.333-85.333H0v-85.334h42.667A85.333 85.333 0 00128 384V213.333A85.333 85.333 0 01213.333 128m597.334 0A85.333 85.333 0 01896 213.333V384a85.333 85.333 0 0085.333 85.333H1024v85.334h-42.667A85.333 85.333 0 00896 640v170.667A85.333 85.333 0 01810.667 896h-85.334v-85.333h85.334V597.333A85.333 85.333 0 01896 512a85.333 85.333 0 01-85.333-85.333V213.333h-85.334V128h85.334M512 640a42.667 42.667 0 0142.667 42.667A42.667 42.667 0 01512 725.333a42.667 42.667 0 01-42.667-42.666A42.667 42.667 0 01512 640m-170.667 0A42.667 42.667 0 01384 682.667a42.667 42.667 0 01-42.667 42.666 42.667 42.667 0 01-42.666-42.666A42.667 42.667 0 01341.333 640m341.334 0a42.667 42.667 0 0142.666 42.667 42.667 42.667 0 01-42.666 42.666A42.667 42.667 0 01640 682.667 42.667 42.667 0 01682.667 640z"/></svg>
